X:1
T:Title
%%score { ( 1 4 ) | ( 2 3 ) }
L:1/8
M:6/8
K:Ab
V:1 treble nm="Grand Piano"
V:4 treble 
V:2 bass 
V:3 bass 
V:1
 z3 z2[Q:1/4=100] [CE] | [CA]2 [CA] [CA][DB][CA] | [EG]2 [DF] [CE]2 [CEA] | G2 A B2 G | %4
 A2 B [Ec]3 |[M:1/8] c/d/ |[M:3/4] e2 ee dc |[M:7/8] B2 c [Fd]3 [FB] |[M:3/4] A2 EA dc | %9
 c2 B .[CA]3 | e2 ee dc | [Ae]2 [Gd] .[Gd]3 | [Gd]2 [Gd]d cB | d2 c .c3 | [Ec][Ec] [Ec]c B[A,EA] | %15
[M:7/8] [A,DF]2 [Fd] [Fd]3 [FB] |[M:3/4] A2 A c2 B |[M:5/8] [CEA]-[CEA]- [CEA]3 |] %18
V:2
 z3 z2 [A,,A,] | [A,,E,]2 [A,,E,] [A,,E,]2 [A,,E,] | [A,,D,]2 [A,,A,] [A,,A,]2 A,, | %3
 [E,B,E]2 [E,CE] [E,DE]2 [E,B,E] | [E,CE]2 [E,G,E] [A,,A,]3 |[M:1/8][K:treble] [A,A] | %6
[M:3/4] [A,CA]2 [A,CA][A,E]- [A,B,E][K:bass][A,E] |[M:7/8] [E,G,E]2 [A,_G] [D,A,]3 [D,D] | %8
[M:3/4] z2 z C z2 | [E,A,E]2 [E,G,D] .[A,,A,]3 | [A,CA]2 [A,CA][A,A]- [A,B,A][A,A] | %11
 [E,C]2 [E,B,] .[E,B,]3 | z2 z B, z2 | [E,B,E]2 [A,E] .[A,E]3 | z2 z .A,3 | %15
[M:7/8] D,2 [D,A,] [D,A,]3 [D,D] |[M:3/4] [E,CE]2 [E,CE] [E,E]2 [E,DE] |[M:5/8] A,,-A,,- A,,3 |] %18
V:3
 x6 | x6 | x6 | x6 | x6 |[M:1/8][K:treble] z/ B,/ |[M:3/4] z2 z C z2[K:bass] |[M:7/8] x7 | %8
[M:3/4] [E,CE]2 [E,A,C][E,E]- [E,B,E][E,A,E] | x6 | z2 z C z2 | x6 | %12
 [E,B,]2 [E,B,][E,E]- [E,A,E][E,G,E] | x6 | [A,,A,][A,,A,] [A,,A,]A,, B,,C, |[M:7/8] x7 | %16
[M:3/4] x6 |[M:5/8] x5 |] %18
V:4
 x6 | x6 | x6 | x6 | x6 |[M:1/8] x |[M:3/4] x6 |[M:7/8] x7 |[M:3/4] x6 | x6 | x6 | x6 | x6 | x6 | %14
 z2 z .E3 |[M:7/8] x7 |[M:3/4] x6 |[M:5/8] x5 |] %18

